icons/coronary_care_unit.svg

<svg width="48" height="48" viewBox="0 0 48 48" fill="none" xmlns="http://www.w3.org/2000/svg">
<path d="M18.7796 12C14.9707 12 12.1892 15.9818 12.1892 20.2759C12.1892 21.273 12.3235 22.2329 12.564 23.1525H15.8506L19.3698 17L21.5688 24.5686L24.2597 21.1663H29.9613C30.535 21.1663 31 21.6236 31 22.1878C31 22.7519 30.535 23.2092 29.9613 23.2092H25.2758L20.6958 29L18.7399 22.2682L17.0656 25.1954H13.2924C16.3303 31.9109 24.5946 36 24.5946 36C24.5946 36 37 29.4666 37 20.2759C37 15.9825 34.2189 12 30.4096 12C27.7664 12 25.8052 13.7867 24.5946 16.3208C23.384 13.7865 21.4227 12 18.7796 12Z" fill="black"/>
<path fill-rule="evenodd" clip-rule="evenodd" d="M6 9C6 7.34315 7.34315 6 9 6H39C40.6569 6 42 7.34315 42 9V39C42 40.6569 40.6569 42 39 42H9C7.34315 42 6 40.6569 6 39V9ZM8 9C8 8.44772 8.44771 8 9 8H39C39.5523 8 40 8.44771 40 9V39C40 39.5523 39.5523 40 39 40H9C8.44772 40 8 39.5523 8 39V25.1955H13.2847L12.5541 23.1523L8 23.1526V9Z" fill="black"/>
</svg>

<svg
  xmlns="http://www.w3.org/2000/svg"
  width="24"
  height="24"
  viewBox="0 0 24 24"
  fill="none"
  stroke="currentColor"
  stroke-width="2"
  stroke-linecap="round"
  stroke-linejoin="round"
>
  <path d="M18.78 12c-3.81 0-6.59 3.982-6.59 8.276 0 .997.133 1.957.374 2.877h3.287L19.37 17l2.199 7.569 2.69-3.403h5.702A1.03 1.03 0 0 1 31 22.188a1.03 1.03 0 0 1-1.039 1.021h-4.685L20.696 29l-1.956-6.732-1.674 2.927h-3.774C16.33 31.911 24.595 36 24.595 36S37 29.467 37 20.276C37 15.983 34.219 12 30.41 12c-2.644 0-4.605 1.787-5.815 4.32C23.384 13.788 21.423 12 18.78 12" />
  <path
    fill-rule="evenodd"
    d="M6 9a3 3 0 0 1 3-3h30a3 3 0 0 1 3 3v30a3 3 0 0 1-3 3H9a3 3 0 0 1-3-3zm2 0a1 1 0 0 1 1-1h30a1 1 0 0 1 1 1v30a1 1 0 0 1-1 1H9a1 1 0 0 1-1-1V25.196h5.285l-.73-2.044H8z"
    clip-rule="evenodd"
  />
</svg>
